X: 1
T:Moll in the Wad -- Jig
M:6/8
L:1/8
R:jig
B:Ryan's Mammoth Collection
N:88 455
Z:Contributed by Ray Davies,  ray:davies99.freeserve.co.uk
K:G
"G MINOR"vgdB gdB | gdB g2a | _bag g^fg | afd dcd |
gdB gdB | gdB g2a | _bag fga |1 (g3 g2)z :|2 (g3 =f2)z |]
K:Bb
fdB {c}BAB | fBB gBB | fdB {c}BAB | cAF FAc |
fdB {c}BAB | fBB gBB | fba gfe |1 dcB AGF :|2 dcB A^Fd "_D.C."|]
